X:1
T:Title
%%score ( 1 2 ) 3
L:1/8
Q:1/4=90
M:4/4
K:Eb
V:1 treble nm="Grand Piano, Soprano"
V:2 treble 
V:3 bass nm="Choir Pad, Čitluk, G. B. Holsinger, 1898"
V:1
 E>[EF] [EG]>[EB] [EB]>[Ec] [EB]>[EG] | [DF]>E [Ee]>[Ad] [Ae]>[Af] [Ae]2 | %2
w: By~George~Blackburn~Holsinger~ * * * * * * *||
 [Bd]>[Ac] [GB]>[GB] [GB]>[GB] [Ge]>[GB] | [FA]>[EG] [DF]>[DF] [DF]>[EG] [DF]2 | %4
w: ||
 E>[EF] [EG]>[GB] [GB]>[Ac] [GB]>[EG] | [DF]>E [Ee]>[Af] [Ae]>[Ad] [Ac]2 | %6
w: ||
 [Bd]>[Ac] [GB]>[GB] [GB]>[Ge] [GB]>[EG] | E>[EF] [EG]>[GB] [FA]>[DF] E2 | z2 e6 | z2 B4 z2 | %10
w: ||||
 z2 c6 | z2 B6 | z2 e6 | z2 B4 z2 | z2 G6 | [FA]>[DF] E6- | E2 z2 z4 |] %17
w: |||||||
V:2
 x8 | x8 | x8 | x8 | x8 | x8 | x8 | x8 | (3Bcd z2 G>G G>[Ae] | [Ge]>[Ac] G>G G>G [EG]2 | %10
 (3GAB z2 A>A A>[Ae] | [Ad]>[Ac] G>G G>G G2 | (3Bcd z2 G>G G>[Af] | [Ge]>[Ac] G>G G>G [EG]2 | %14
 E>F z2 E>E E>[GB] | x8 | x8 |] %17
V:3
 [E,G,]>[E,A,] [E,B,]>[E,G,] [E,G,]>[E,A,] [E,G,]>[E,B,] | %1
 [F,B,]>[G,B,] [A,C]>[A,=B,] [A,C]>[A,C] [A,C]2 | %2
 [A,E]>[A,E] [E,E]>[E,E] [E,E]>[E,E] [E,B,]>[E,B,] | %3
 [D,B,]>[E,B,] [B,,B,]>[B,,B,] [B,,B,]>[B,,B,] [B,,B,]2 | %4
 [E,G,]>[E,A,] [E,B,]>[E,E] [E,E]>[E,E] [E,E]>[D,B,] | %5
 [F,B,]>[G,B,] [A,C]>[A,C] [A,C]>[A,E] [A,E]2 | %6
 [A,E]>[A,E] [E,E]>[E,E] [E,E]>[E,B,] [E,B,]>[E,B,] | [G,B,]>[A,C] B,>B, [B,,B,]>[B,,A,] [E,G,]2 | %8
 z4 [E,B,]>[E,B,] [E,B,]>[E,B,] | [E,B,]>[E,E] [E,E]>[E,E] [E,E]>[E,E] [E,B,]2 | %10
 z4 [A,E]>[A,E] [A,E]>[A,C] | [A,E]>[A,E] [E,E]>[E,E] [E,E]>[E,E] [E,E]2 | %12
 z4 [E,B,]>[E,B,] [E,B,]>[E,B,] | [E,B,]>[E,E] [E,E]>[E,E] [E,E]>[E,E] [E,B,]2 | %14
 z4 [E,B,]>[E,B,] [E,B,]>[E,B,] | [B,,B,]>[B,,A,] [E,G,]6- | [E,G,]2 z2 z4 |] %17

